svg/SJJB-OpenStreetMapIcons/tourist/archaeological2.svg

<?xml version="1.0" encoding="UTF-8" standalone="no"?>
<!-- Created with Inkscape (http://www.inkscape.org/) -->
<svg
   xmlns:dc="http://purl.org/dc/elements/1.1/"
   xmlns:cc="http://creativecommons.org/ns#"
   xmlns:rdf="http://www.w3.org/1999/02/22-rdf-syntax-ns#"
   xmlns:svg="http://www.w3.org/2000/svg"
   xmlns="http://www.w3.org/2000/svg"
   xmlns:sodipodi="http://sodipodi.sourceforge.net/DTD/sodipodi-0.dtd"
   xmlns:inkscape="http://www.inkscape.org/namespaces/inkscape"
   version="1.0"
   width="580"
   height="580"
   id="svg2"
   sodipodi:version="0.32"
   inkscape:version="0.46"
   sodipodi:docname="tourist_archaeological2.svg"
   sodipodi:docbase="s:\Data\FacilityIcons"
   inkscape:output_extension="org.inkscape.output.svg.inkscape">
  <metadata
     id="metadata2975">
    <rdf:RDF>
      <cc:Work
         rdf:about="">
        <dc:format>image/svg+xml</dc:format>
        <dc:type
           rdf:resource="http://purl.org/dc/dcmitype/StillImage" />
        <cc:license
           rdf:resource="http://web.resource.org/cc/PublicDomain" />
        <dc:language>en</dc:language>
      </cc:Work>
    </rdf:RDF>
  </metadata>
  <sodipodi:namedview
     inkscape:window-height="1003"
     inkscape:window-width="1400"
     inkscape:pageshadow="2"
     inkscape:pageopacity="0.0"
     guidetolerance="10.0"
     gridtolerance="10.0"
     objecttolerance="10.0"
     borderopacity="1.0"
     bordercolor="#666666"
     pagecolor="#ffffff"
     id="base"
     inkscape:zoom="0.46083856"
     inkscape:cx="1018.8137"
     inkscape:cy="242.12702"
     inkscape:window-x="-4"
     inkscape:window-y="-4"
     inkscape:current-layer="svg2"
     showgrid="false" />
  <defs
     id="defs4">
    <inkscape:perspective
       sodipodi:type="inkscape:persp3d"
       inkscape:vp_x="0 : 290 : 1"
       inkscape:vp_y="0 : 1000 : 0"
       inkscape:vp_z="580 : 290 : 1"
       inkscape:persp3d-origin="290 : 193.33333 : 1"
       id="perspective2441" />
    <inkscape:perspective
       id="perspective3452"
       inkscape:persp3d-origin="30 : 20 : 1"
       inkscape:vp_z="60 : 30 : 1"
       inkscape:vp_y="0 : 1000 : 0"
       inkscape:vp_x="0 : 30 : 1"
       sodipodi:type="inkscape:persp3d" />
    <symbol
       viewBox="244.5 110 489 219.9"
       id="symbol-university">
      <path
         id="path4460"
         d="M79,43l57,119c0,0,21-96,104-96s124,106,124,106l43-133l82-17L0,17L79,43z" />
      <path
         id="path4462"
         d="M94,176l-21,39"
         stroke-width="20"
         stroke="#000000"
         fill="none" />
      <path
         id="path4464"
         d="M300,19c0,10.5-22.6,19-50.5,19S199,29.5,199,19s22.6-19,50.5-19S300,8.5,300,19z" />
      <path
         id="path4466"
         d="M112,216l-16-38L64,88c0,0-9-8-4-35s16-24,16-24"
         stroke-width="20"
         stroke="#000000"
         ill="none" />
    </symbol>
    <inkscape:perspective
       id="perspective4471"
       inkscape:persp3d-origin="372.04724 : 350.78739 : 1"
       inkscape:vp_z="744.09448 : 526.18109 : 1"
       inkscape:vp_y="0 : 1000 : 0"
       inkscape:vp_x="0 : 526.18109 : 1"
       sodipodi:type="inkscape:persp3d" />
    <inkscape:perspective
       id="perspective4668"
       inkscape:persp3d-origin="6 : 4 : 1"
       inkscape:vp_z="12 : 6 : 1"
       inkscape:vp_y="0 : 1000 : 0"
       inkscape:vp_x="0 : 6 : 1"
       sodipodi:type="inkscape:persp3d" />
    <inkscape:perspective
       id="perspective8054"
       inkscape:persp3d-origin="372.04724 : 350.78739 : 1"
       inkscape:vp_z="744.09448 : 526.18109 : 1"
       inkscape:vp_y="0 : 1000 : 0"
       inkscape:vp_x="0 : 526.18109 : 1"
       sodipodi:type="inkscape:persp3d" />
    <inkscape:perspective
       id="perspective8069"
       inkscape:persp3d-origin="372.04724 : 350.78739 : 1"
       inkscape:vp_z="744.09448 : 526.18109 : 1"
       inkscape:vp_y="0 : 1000 : 0"
       inkscape:vp_x="0 : 526.18109 : 1"
       sodipodi:type="inkscape:persp3d" />
    <inkscape:perspective
       id="perspective8896"
       inkscape:persp3d-origin="372.04724 : 350.78739 : 1"
       inkscape:vp_z="744.09448 : 526.18109 : 1"
       inkscape:vp_y="0 : 1000 : 0"
       inkscape:vp_x="0 : 526.18109 : 1"
       sodipodi:type="inkscape:persp3d" />
  </defs>
  <g
     id="g1327">
    <path
       d="M 66.275,1.768 C 24.94,1.768 1.704,23.139 1.704,66.804 L 1.704,516.927 C 1.704,557.771 22.599,579.156 63.896,579.156 L 515.92,579.156 C 557.227,579.156 578.149,558.841 578.149,516.927 L 578.149,66.804 C 578.149,24.203 557.227,1.768 514.628,1.768 C 514.624,1.768 66.133,1.625 66.275,1.768 z "
       style="fill:#111;stroke:#eee;stroke-width:3.40799999"
       id="path1329" />
  </g>
  <g
     id="layer3"
     inkscape:label="Layout"
     style="display:none;stroke:#757575;stroke-opacity:1"
     transform="matrix(48.14969,0,0,48.14969,-536.27327,-33.306752)">
    <rect
       style="fill:none;stroke:#757575;stroke-width:0.10000000000000001;stroke-miterlimit:4;stroke-dasharray:none;stroke-opacity:1;display:inline"
       id="rect4134"
       width="10"
       height="10"
       x="1"
       y="1" />
    <rect
       style="fill:none;stroke:#757575;stroke-width:0.10000000000000001;stroke-miterlimit:4;stroke-dasharray:none;stroke-opacity:1;display:inline"
       id="rect4136"
       width="8"
       height="8"
       x="2"
       y="2" />
  </g>
  <path
     style="fill:#ffffff;stroke:#ffffff;stroke-width:4.71551275;stroke-miterlimit:4;stroke-dasharray:none;stroke-opacity:1"
     d="M 267.96875 50.75 C 266.59016 50.733287 265.25398 50.7811 264.03125 50.875 C 257.85906 51.348974 250.18948 53.312633 247.28125 55.15625 C 246.03908 55.943693 243.5692 57.409906 241.78125 58.4375 C 237.066 61.147574 225.84467 73.383628 220.8125 81.3125 C 217.61382 86.352459 214.10046 92.131556 212.90625 94.28125 C 212.63315 94.772826 211.09349 97.002404 209.5 99.25 C 207.90652 101.49759 205.97821 104.53391 205.1875 106 C 204.39681 107.46608 203.55493 108.69242 203.34375 108.71875 C 203.13259 108.74506 201.631 110.90965 200 113.53125 C 192.86213 125.00432 184.0611 135.87915 180.59375 137.46875 C 175.90847 139.6167 167.95117 146.86437 163.5 153.0625 C 161.89772 155.2936 159.20213 158.97351 157.53125 161.25 C 153.7998 166.33397 147.68751 176.89384 145.5625 181.90625 C 144.69427 183.95419 143.25532 187.36705 142.34375 189.5 C 140.40659 194.0327 137.0853 203.10134 136.875 204.46875 C 136.7949 204.98961 136.31802 206.75971 135.8125 208.375 C 135.30698 209.99031 134.56519 212.56933 134.15625 214.125 C 133.74733 215.6807 132.79109 219.28869 132.03125 222.15625 C 131.27144 225.02378 130.4824 228.26873 130.28125 229.34375 C 130.08011 230.41876 129.84916 231.39246 129.75 231.5 C 129.58921 231.67439 128.52887 236.72319 127.59375 241.90625 C 127.40674 242.94275 127.17735 243.90668 127.0625 244.03125 C 126.70512 244.41886 124.15726 262.44881 124.3125 263.5 C 124.39327 264.04721 124.35361 264.60045 124.21875 264.75 C 124.08385 264.89957 123.83353 266.84719 123.65625 269.0625 C 123.47899 271.2778 123.24591 273.98706 123.15625 275.09375 C 123.06656 276.20044 122.91544 278.49835 122.8125 280.1875 C 122.70955 281.87662 122.54264 284.25891 122.4375 285.5 C 122.15608 288.82206 122.05966 290.56397 122 293.0625 C 121.97063 294.2932 121.87761 295.36687 121.8125 295.4375 C 121.60357 295.66409 121.216 305.11771 121.3125 307.5625 C 121.36376 308.8613 121.41687 310.72122 121.4375 311.71875 C 121.63662 321.35362 122.74099 333.1701 124.59375 345.34375 C 125.70525 352.64685 126.36875 359.07551 126.34375 362.5625 C 126.32296 365.46768 126.32287 365.47107 124.96875 365.0625 C 124.22401 364.83781 122.49722 364.04958 121.125 363.3125 C 119.75276 362.57541 117.66886 361.70606 116.5 361.375 C 115.33113 361.04393 114.21041 360.62681 114 360.4375 C 113.78959 360.24817 111.14724 359.69407 108.15625 359.1875 C 105.16524 358.68092 102.15134 357.98514 101.4375 357.65625 C 99.005606 356.53573 92.160853 354.96547 88.65625 354.71875 C 81.044903 354.1829 73.263748 356.99391 70.46875 361.28125 C 68.049904 364.99163 66.516343 371.17509 66.90625 375.6875 C 67.443714 381.90774 70.844221 394.70874 72.3125 396.0625 C 72.443065 396.18289 72.794066 396.9732 73.09375 397.84375 C 73.657599 399.4814 75.544576 402.68958 78.78125 407.5 C 79.811048 409.03056 80.846294 410.78593 81.09375 411.40625 C 81.54231 412.53061 86.355218 419.07865 93.75 428.5625 C 95.89369 431.31181 98.090247 434.16248 98.625 434.90625 C 99.014999 435.44878 104.02733 440.17756 110.9375 446.59375 C 129.25303 445.68729 148.97219 445.70661 168.15625 447.625 C 233.25495 454.13491 263.64735 456.3049 324.40625 447.625 C 337.52214 445.75131 351.89635 443.99982 366.71875 442.4375 C 373.15722 440.39741 377.9689 438.64243 381.90625 436.875 C 383.20762 436.29084 385.30202 435.44197 386.5625 434.96875 C 393.65302 432.30669 409.99398 423.0864 416.03125 418.34375 C 417.68551 417.04422 419.62808 415.66211 420.34375 415.28125 C 423.81662 413.43323 428.53661 409.08721 436.5 400.4375 C 445.15793 391.03335 445.39184 390.75352 450.46875 381.5 C 453.99514 375.07243 466.23802 362.37011 473.28125 357.84375 C 474.23147 357.23314 476.29868 355.75396 477.875 354.53125 C 482.71858 350.77417 485.53961 348.71052 487.21875 347.71875 C 488.10331 347.19628 489.41429 346.24774 490.15625 345.59375 C 490.8982 344.9398 492.69039 343.52474 494.125 342.46875 C 507.05377 332.95229 516.28866 324.30998 520.59375 317.71875 C 523.14984 313.80534 524.86093 308.63291 526 301.4375 C 526.8713 295.93363 526.84648 295.22254 525.46875 287.96875 C 523.57869 278.01712 519.85092 267.76171 516.3125 262.8125 C 510.96005 255.32593 507.64221 252.15802 499.375 246.71875 C 495.93079 244.45272 488.14835 240.87923 486.59375 240.84375 C 486.05135 240.83136 485.40721 240.63151 485.15625 240.40625 C 484.90525 240.1809 481.43861 239.54802 477.46875 239 C 473.49887 238.45198 470.13555 237.9 469.96875 237.75 C 469.2018 237.06024 478.41884 228.68189 480.9375 227.78125 C 482.20335 227.32861 483.81503 228.06898 487.40625 230.8125 C 489.95969 232.7632 491.72054 233.21023 494.0625 232.46875 C 494.92659 232.19521 500.00852 230.8927 505.375 229.59375 C 519.70918 226.12415 520.40757 225.91481 520.59375 225.21875 C 520.84952 224.26256 519.94104 222.98084 514.15625 216.09375 C 511.24712 212.63028 508.47686 209.30468 508 208.71875 C 504.89107 204.89893 496.35129 196.49823 478.3125 179.5625 C 455.25935 157.91903 392.46963 100.1163 390.09375 98.34375 C 389.25013 97.714349 383.88551 93.040504 378.1875 87.96875 C 361.79428 73.377233 342.03357 57.109939 337.28125 54.3125 C 335.01625 52.979219 334.77009 53.248073 334 58 C 333.65988 60.098764 332.74748 63.783387 331.96875 66.1875 C 329.44354 73.983576 328.06795 78.897989 327.9375 80.5 C 327.76897 82.569417 329.73162 86.332753 332.5625 89.3125 C 333.8056 90.620992 334.85943 92.051171 334.90625 92.5 C 335.06592 94.030785 332.71843 97.957379 328.90625 102.5625 C 325.09907 107.16159 325.09669 107.18039 324.84375 105.1875 C 324.35428 101.33057 322.05063 89.727233 321.46875 88.21875 C 319.36574 82.767072 314.58433 75.65243 308.96875 69.59375 C 304.64502 64.928821 294.50227 57.846888 288.4375 55.25 C 284.59366 53.604098 279.04611 51.894937 278.71875 52.25 C 278.58848 52.391297 278.10443 52.272539 277.625 52 C 276.4178 51.313764 272.10453 50.800139 267.96875 50.75 z M 273.34375 67.25 C 277.40498 67.172193 281.85226 68.072529 285.21875 69.84375 C 288.64405 71.645908 289.22727 72.099159 293.65625 76.40625 C 298.25399 80.877474 298.47819 81.150024 300.375 84.90625 C 303.96023 92.006022 305.44034 97.697781 305.34375 104.09375 C 305.27323 108.76452 303.94724 117.14209 303.15625 118 C 302.82931 118.35459 302.52366 119.04646 302.46875 119.53125 C 302.24688 121.48996 299.34507 126.21101 296.4375 129.375 C 292.99898 133.11676 292.91201 133.17046 285.9375 133.78125 C 272.26396 134.97878 266.63916 134.55765 251 131.1875 C 248.13941 130.57106 245.10082 129.93035 244.25 129.75 C 243.39922 129.56963 240.92281 128.98023 238.75 128.46875 C 236.57721 127.95725 233.46879 127.37934 231.84375 127.15625 C 230.2187 126.93313 228.36438 126.51356 227.71875 126.25 C 226.19586 125.62833 225.81974 125.24928 225.71875 124.28125 C 225.60267 123.16828 227.31976 118.65222 228.625 116.625 C 229.72112 114.92257 232.06732 110.75102 233.84375 107.34375 C 234.36724 106.33969 235.81675 103.91099 237.0625 101.9375 C 238.30825 99.964012 240.17839 96.836708 241.25 95 C 248.60286 82.397547 258.72968 71.894244 266.78125 68.46875 C 268.60637 67.692268 270.90701 67.296684 273.34375 67.25 z M 479.0625 260.46875 C 487.11317 260.66102 494.68675 262.89084 499.8125 267.09375 C 504.35626 270.81944 507.85553 276.18157 508.625 280.65625 C 509.40964 285.21933 508.31734 293.49619 506.28125 298.53125 C 504.74305 302.3351 504.47263 302.71227 498.09375 309.625 C 492.92917 315.22172 490.77347 317.24517 488.21875 318.90625 C 486.42206 320.07446 483.75011 321.8818 482.28125 322.90625 C 480.8124 323.9307 477.97407 325.82054 475.96875 327.09375 C 473.96347 328.36695 470.9575 330.30691 469.28125 331.4375 C 464.93313 334.37034 459.21474 337.28938 457.15625 337.59375 C 454.93198 337.92262 454.76415 337.75524 454.53125 334.875 C 454.35695 332.71939 450.73565 317.87285 449.25 313.25 C 448.07561 309.59565 445.53114 297.12684 445.0625 292.65625 C 443.82168 280.81974 447.98461 270.22955 455.5 266.03125 C 462.50504 262.11805 471.01183 260.27648 479.0625 260.46875 z "
     id="path8938" />
  <path
     style="fill:none;fill-rule:evenodd;stroke:#ffffff;stroke-width:40;stroke-linecap:square;stroke-linejoin:bevel;stroke-miterlimit:4;stroke-dasharray:none;stroke-opacity:1"
     d="M 55.895722,502.66176 C 81.761522,498.62856 128.61643,493.1521 172.51157,497.54157 C 237.61025,504.05149 267.98965,506.22147 328.74855,497.54157 C 382.42864,489.87303 456.43424,483.89819 501.38234,487.09948"
     id="path9010" />
</svg>

<svg xmlns="http://www.w3.org/2000/svg" viewBox="0 0 580 580"><path d="m66.28 1.768c-41.34 0-64.57 21.371-64.57 65.04v450.12c0 40.844 20.895 62.23 62.19 62.23h452.02c41.31 0 62.23-20.315 62.23-62.23v-450.12c0-42.601-20.922-65.04-63.52-65.04-.004 0-448.5-.143-448.35 0z" fill="#111" stroke="#eee" stroke-width="3.408"/><g stroke="#fff"><path d="m267.97 50.75c-1.379-.017-2.715.031-3.938.125-6.172.474-13.842 2.438-16.75 4.281-1.242.787-3.712 2.254-5.5 3.281-4.715 2.71-15.937 14.946-20.969 22.875-3.199 5.04-6.712 10.819-7.906 12.969-.273.492-1.813 2.721-3.406 4.969-1.593 2.248-3.522 5.284-4.313 6.75-.791 1.466-1.633 2.692-1.844 2.719-.211.026-1.713 2.191-3.344 4.813-7.138 11.473-15.939 22.348-19.406 23.938-4.685 2.148-12.643 9.396-17.09 15.594-1.602 2.231-4.298 5.911-5.969 8.188-3.731 5.084-9.844 15.644-11.969 20.656-.868 2.048-2.307 5.461-3.219 7.594-1.937 4.533-5.258 13.601-5.469 14.969-.08.521-.557 2.291-1.063 3.906-.506 1.615-1.247 4.194-1.656 5.75-.409 1.556-1.365 5.164-2.125 8.03-.76 2.868-1.549 6.112-1.75 7.188-.201 1.075-.432 2.049-.531 2.156-.161.174-1.221 5.223-2.156 10.406-.187 1.036-.416 2-.531 2.125-.357.388-2.905 18.418-2.75 19.469.081.547.041 1.1-.094 1.25-.135.15-.385 2.097-.563 4.313-.177 2.215-.41 4.925-.5 6.03-.09 1.107-.241 3.405-.344 5.094-.103 1.689-.27 4.071-.375 5.313-.281 3.322-.378 5.064-.438 7.563-.029 1.231-.122 2.304-.188 2.375-.209.227-.597 9.68-.5 12.12.051 1.299.104 3.159.125 4.156.199 9.635 1.303 21.451 3.156 33.625 1.112 7.303 1.775 13.732 1.75 17.219-.021 2.905-.021 2.909-1.375 2.5-.745-.225-2.472-1.013-3.844-1.75-1.372-.737-3.456-1.606-4.625-1.938-1.169-.331-2.29-.748-2.5-.938-.21-.189-2.853-.743-5.844-1.25-2.991-.507-6-1.202-6.719-1.531-2.432-1.121-9.277-2.691-12.781-2.938-7.611-.536-15.393 2.275-18.19 6.563-2.419 3.71-3.952 9.894-3.563 14.406.537 6.22 3.938 19.02 5.406 20.375.131.12.482.911.781 1.781.564 1.638 2.451 4.846 5.688 9.656 1.03 1.531 2.065 3.286 2.313 3.906.449 1.124 5.261 7.672 12.656 17.16 2.144 2.749 4.34 5.6 4.875 6.344.39.543 5.402 5.271 12.313 11.688 18.316-.906 38.03-.887 57.22 1.031 65.1 6.51 95.49 8.68 156.25 0 13.12-1.874 27.49-3.625 42.31-5.188 6.438-2.04 11.25-3.795 15.188-5.563 1.301-.584 3.396-1.433 4.656-1.906 7.091-2.662 23.431-11.882 29.469-16.625 1.654-1.3 3.597-2.682 4.313-3.063 3.473-1.848 8.193-6.194 16.16-14.844 8.658-9.404 8.892-9.684 13.969-18.938 3.526-6.428 15.769-19.13 22.813-23.656.95-.611 3.02-2.09 4.594-3.313 4.844-3.757 7.665-5.821 9.344-6.813.885-.522 2.196-1.471 2.938-2.125.742-.654 2.534-2.069 3.969-3.125 12.929-9.516 22.16-18.16 26.469-24.75 2.556-3.913 4.267-9.09 5.406-16.281.871-5.504.846-6.215-.531-13.469-1.89-9.952-5.618-20.21-9.156-25.16-5.352-7.487-8.67-10.654-16.938-16.09-3.444-2.266-11.227-5.84-12.781-5.875-.542-.012-1.187-.212-1.438-.438-.251-.225-3.718-.858-7.688-1.406-3.97-.548-7.333-1.1-7.5-1.25-.767-.69 8.45-9.07 10.969-9.969 1.266-.453 2.878.288 6.469 3.03 2.553 1.951 4.314 2.398 6.656 1.656.864-.274 5.946-1.576 11.313-2.875 14.334-3.47 15.03-3.679 15.219-4.375.256-.956-.653-2.238-6.438-9.125-2.909-3.463-5.679-6.789-6.156-7.375-3.109-3.82-11.649-12.221-29.688-29.16-23.05-21.643-85.84-79.45-88.22-81.22-.844-.629-6.208-5.303-11.906-10.375-16.393-14.592-36.15-30.859-40.906-33.656-2.265-1.333-2.511-1.064-3.281 3.688-.34 2.099-1.253 5.783-2.031 8.188-2.525 7.796-3.901 12.71-4.03 14.313-.169 2.069 1.794 5.833 4.625 8.813 1.243 1.308 2.297 2.739 2.344 3.188.16 1.531-2.188 5.457-6 10.06-3.807 4.599-3.81 4.618-4.063 2.625-.489-3.857-2.793-15.46-3.375-16.969-2.103-5.452-6.884-12.566-12.5-18.625-4.324-4.665-14.466-11.747-20.531-14.344-3.844-1.646-9.391-3.355-9.719-3-.13.141-.614.023-1.094-.25-1.207-.686-5.52-1.2-9.656-1.25zm5.375 16.5c4.061-.078 8.509.823 11.875 2.594 3.425 1.802 4.01 2.255 8.438 6.563 4.598 4.471 4.822 4.744 6.719 8.5 3.585 7.1 5.065 12.792 4.969 19.19-.071 4.671-1.397 13.05-2.188 13.906-.327.355-.633 1.046-.688 1.531-.222 1.959-3.124 6.68-6.03 9.844-3.439 3.742-3.525 3.795-10.5 4.406-13.674 1.198-19.298.776-34.938-2.594-2.861-.616-5.899-1.257-6.75-1.438-.851-.18-3.327-.77-5.5-1.281-2.173-.511-5.281-1.089-6.906-1.313-1.625-.223-3.479-.643-4.125-.906-1.523-.622-1.899-1-2-1.969-.116-1.113 1.601-5.629 2.906-7.656 1.096-1.702 3.442-5.874 5.219-9.281.523-1 1.973-3.433 3.219-5.406 1.246-1.973 3.116-5.101 4.188-6.938 7.353-12.602 17.48-23.11 25.531-26.531 1.825-.776 4.126-1.172 6.563-1.219zm205.72 193.22c8.05.192 15.624 2.422 20.75 6.625 4.544 3.726 8.04 9.09 8.813 13.563.785 4.563-.308 12.84-2.344 17.875-1.538 3.804-1.809 4.181-8.188 11.09-5.165 5.597-7.32 7.62-9.875 9.281-1.797 1.168-4.469 2.976-5.938 4-1.469 1.024-4.307 2.914-6.313 4.188-2.01 1.273-5.01 3.213-6.688 4.344-4.348 2.933-10.07 5.852-12.12 6.156-2.224.329-2.392.161-2.625-2.719-.174-2.156-3.796-17-5.281-21.625-1.174-3.654-3.719-16.12-4.188-20.594-1.241-11.837 2.922-22.427 10.438-26.625 7.01-3.913 15.512-5.755 23.563-5.563z" fill="#fff" stroke-width="4.716"/><path d="m55.896 502.66c25.866-4.03 72.72-9.51 116.62-5.12 65.1 6.51 95.48 8.68 156.24 0 53.68-7.669 127.69-13.643 172.63-10.442" fill="none" fill-rule="evenodd" stroke-linejoin="bevel" stroke-linecap="square" stroke-width="40"/></g></svg>
